pic/icon-font-style.svg

<svg xmlns="http://www.w3.org/2000/svg" width="30" height="30" viewBox="0 0 30 30">
  <path fill-rule="evenodd" d="M25,0 C27.7614237,0 30,2.23857625 30,5 L30,25 C30,27.7614237 27.7614237,30 25,30 L5,30 C2.23857625,30 0,27.7614237 0,25 L0,5 C0,2.23857625 2.23857625,0 5,0 L25,0 Z M18.5762602,6 C18.1584477,7.17779606 16.7041575,7.92020134 15.0273836,7.92020134 C13.4232552,7.92020134 11.9727488,7.2409496 11.4842828,6.1511312 L11.4237128,6 L5.37593826,8.72952533 L5.29893481,8.77278825 C5.15491678,8.87137629 5.07253084,9.03888347 5.0823558,9.21313692 L5.09509408,9.300538 L6.07445945,13.4339178 L6.10789376,13.5458459 C6.26562343,13.9802659 6.70403769,14.2507204 7.16304501,14.1967609 L7.2984682,14.1713608 L8.39094547,13.8881407 L8.02290662,22.9555899 L8.02489918,23.0723879 C8.06244688,23.5716601 8.46911436,23.9745244 8.98152828,23.9953228 L21.0013401,23.9961455 L21.1179612,23.9894178 C21.5770431,23.9360962 21.9412907,23.5718485 21.9946124,23.1127667 L22.0011074,22.9745743 L22.0011074,22.9745743 L21.6090545,13.8881137 L22.7015318,14.1713338 L22.8161094,14.1940874 C23.2738817,14.2576786 23.7178814,13.9964948 23.8847033,13.5654846 L23.9255405,13.4338908 L24.9049054,9.30051307 L24.9176437,9.21311165 C24.9274686,9.03885754 24.8450819,8.87134986 24.7010629,8.77276208 L24.6240589,8.72949935 L18.5762602,6 Z M19.3362925,21 C19.6124349,21 19.8362925,21.2238576 19.8362925,21.5 C19.8362925,21.7454599 19.6594174,21.9496084 19.4261682,21.9919443 L19.3362925,22 L10.3362925,22 L10.2464169,21.9919443 C10.0131677,21.9496084 9.83629254,21.7454599 9.83629254,21.5 C9.83629254,21.2545401 10.0131677,21.0503916 10.2464169,21.0080557 L10.3362925,21 L19.3362925,21 Z M19.3362925,19 C19.6124349,19 19.8362925,19.2238576 19.8362925,19.5 C19.8362925,19.7454599 19.6594174,19.9496084 19.4261682,19.9919443 L19.3362925,20 L10.3362925,20 L10.2464169,19.9919443 C10.0131677,19.9496084 9.83629254,19.7454599 9.83629254,19.5 C9.83629254,19.2545401 10.0131677,19.0503916 10.2464169,19.0080557 L10.3362925,19 L19.3362925,19 Z M15.1692801,10 C15.5124486,10 15.828371,10.17559 16.0106724,10.4595313 L16.0725642,10.570957 L19.1540686,17.0585905 L19.1893832,17.149588 C19.283175,17.45672 19.140417,17.7943793 18.8416532,17.9362865 C18.7827746,17.9642527 18.7202381,17.9832478 18.656119,17.9928038 L18.5590129,18 L18.1684307,18 L18.0380074,17.991486 C17.7379458,17.9520909 17.471317,17.7783488 17.3140869,17.519761 L17.2536219,17.4038874 L16.6882178,16.1232417 L12.985383,16.1232417 L12.3806409,17.4220902 L12.3191267,17.5347499 C12.1602075,17.7860091 11.897042,17.9537718 11.6021838,17.9917866 L11.4740871,18 L11.0952527,18 L11.000123,17.99302 C10.689694,17.9470401 10.4514958,17.6794587 10.4514958,17.3562431 C10.4514958,17.2928214 10.4608667,17.2299252 10.4791591,17.1695571 L10.5132326,17.0811511 L13.5894649,10.5726773 L13.6512644,10.4609459 C13.8106337,10.2118013 14.0727859,10.045748 14.3661395,10.0081276 L14.493564,10 L15.1692801,10 Z M14.8362925,11.8130103 L13.5545714,14.7799378 L16.1439071,14.7799378 L14.8362925,11.8130103 Z"/>
</svg>

<svg xmlns="http://www.w3.org/2000/svg" width="30" height="30" viewBox="0 0 30 30"><path fill-rule="evenodd" d="M25 0a5 5 0 0 1 5 5v20a5 5 0 0 1-5 5H5a5 5 0 0 1-5-5V5a5 5 0 0 1 5-5h20Zm-6.424 6c-.418 1.178-1.872 1.92-3.549 1.92-1.604 0-3.054-.68-3.543-1.769L11.424 6 5.376 8.73l-.077.043a.5.5 0 0 0-.217.44l.013.088.98 4.133.033.112a1 1 0 0 0 1.055.65l.135-.025 1.093-.283-.368 9.068.002.116a1 1 0 0 0 .957.923l12.02.001.116-.007a1 1 0 0 0 .877-.876l.006-.138-.392-9.087 1.093.283.114.023a1 1 0 0 0 1.069-.629l.04-.131.98-4.133.013-.088a.5.5 0 0 0-.217-.44l-.077-.044L18.576 6Zm.76 15a.5.5 0 0 1 .09.992l-.09.008h-9l-.09-.008a.5.5 0 0 1 0-.984l.09-.008h9Zm0-2a.5.5 0 0 1 .09.992l-.09.008h-9l-.09-.008a.5.5 0 0 1 0-.984l.09-.008h9Zm-4.167-9a1 1 0 0 1 .842.46l.062.111 3.081 6.488.035.09a.659.659 0 0 1-.533.844L18.56 18h-.39l-.131-.009a1 1 0 0 1-.724-.471l-.06-.116-.566-1.28h-3.703l-.604 1.298-.062.113a1 1 0 0 1-.717.457l-.128.008h-.379L11 17.993a.644.644 0 0 1-.52-.823l.033-.089 3.076-6.508.062-.112a1 1 0 0 1 .715-.453l.128-.008h.675Zm-.333 1.813-1.281 2.967h2.589l-1.308-2.967Z"/></svg>
